images_elementary_svg/cmd/sc_presentationdialog.svg

<svg height="16" width="16" xmlns="http://www.w3.org/2000/svg" xmlns:xlink="http://www.w3.org/1999/xlink"><linearGradient id="a" gradientTransform="matrix(.36729854 0 0 .36733216 -.291883 -1.319469)" gradientUnits="userSpaceOnUse" x1="24.377628" x2="17.064001" y1="22.098661" y2="35.86034"><stop offset="0" stop-color="#fff"/><stop offset=".00164232" stop-color="#fff" stop-opacity=".235294"/><stop offset=".39239356" stop-color="#fff" stop-opacity=".156863"/><stop offset="1" stop-color="#fff" stop-opacity=".392157"/></linearGradient><radialGradient id="b" cx="65.079536" cy="48.189987" gradientTransform="matrix(0 .61540613 -.66948701 0 41.291629 -38.279644)" gradientUnits="userSpaceOnUse" r="31.000002"><stop offset="0" stop-color="#cdf87e"/><stop offset=".26238" stop-color="#a2e34f"/><stop offset=".66093999" stop-color="#68b723"/><stop offset="1" stop-color="#1d7e0d"/></radialGradient><linearGradient id="c" gradientUnits="userSpaceOnUse" x1="11.720905" x2="11.720905" y1="1.783899" y2="11.976016"><stop offset="0" stop-color="#f6f6f6"/><stop offset="1" stop-color="#e6e6e6"/></linearGradient><linearGradient id="d" gradientUnits="userSpaceOnUse" x1="9.720905" x2="9.720905" y1="2.733051" y2="15.752358"><stop offset="0" stop-color="#888"/><stop offset="1" stop-color="#626262"/></linearGradient><linearGradient id="e" gradientUnits="userSpaceOnUse" x1="12.813955" x2="12.742121" y1="13.774036" y2="9.725965"><stop offset="0" stop-color="#efefef"/><stop offset="1" stop-color="#c9c9c9"/></linearGradient><g transform="translate(-1)"><path d="m3.5056104 14.541034v-12.0412315l11.2384816 6.0206155z" fill="url(#b)"/><g fill="none"><path d="m3.5056104 14.541034v-12.0412313l11.2384816 6.0206155z" opacity=".5" stroke="#0f5a00" stroke-linecap="round" stroke-linejoin="round"/><path d="m4.776846 4.3120817v8.4043653l7.851599-4.1951346z" opacity=".6" stroke="url(#a)" stroke-width=".914912"/></g></g><g transform="matrix(1.0513065 -.43546544 .43546544 1.0513065 -5.966936 4.266501)"><path d="m11.21875 8c-.124208 0-.21875.0945411-.21875.21875v.625c-.276951.0711-.525582.1859391-.765625.328125l-.453125-.453125c-.087828-.087829-.224671-.087829-.3125 0l-.75.75c-.087829.087829-.087829.2246711 0 .3125l.453125.453125c-.1421856.240043-.2570245.488673-.328125.765625h-.625c-.1242085 0-.21875.094541-.21875.21875v1.0625c0 .124209.0945415.21875.21875.21875h.625c.071101.276951.1859395.525582.328125.765625l-.453125.453125c-.087829.08783-.087829.224671 0 .3125l.75.75c.087829.08783.224671.08783.3125 0l.453125-.453125c.240043.142186.488674.257025.765625.328125v.625c0 .124209.094542.21875.21875.21875h1.0625c.124209 0 .21875-.094541.21875-.21875v-.625c.276951-.0711.525582-.185939.765625-.328125l.453125.453125c.08783.08783.224671.08783.3125 0l.75-.75c.08783-.08783.08783-.224671 0-.3125l-.453125-.453125c.142186-.240043.257025-.488674.328125-.765625h.625c.124209 0 .21875-.094541.21875-.21875v-1.0625c0-.124209-.094541-.21875-.21875-.21875h-.625c-.0711-.276952-.185939-.525582-.328125-.765625l.453125-.453125c.08783-.087829.08783-.224671 0-.3125l-.75-.75c-.08783-.087829-.224671-.087829-.3125 0l-.453125.453125c-.240043-.1421859-.488674-.2570247-.765625-.328125v-.625c0-.1242089-.094541-.21875-.21875-.21875zm.53125 2.75c.552 0 1 .448 1 1s-.448 1-1 1-1-.448-1-1 .448-1 1-1z" display="block" fill="url(#c)" stroke="url(#d)" stroke-linejoin="round" stroke-width=".527275"/><path d="m11.75 9.482558c-1.250289 0-2.2674419 1.017154-2.2674419 2.267442 0 1.250289 1.0171529 2.267442 2.2674419 2.267442 1.250288 0 2.267442-1.017153 2.267442-2.267442 0-1.250288-1.017154-2.267442-2.267442-2.267442zm0 1.046512c.673954 0 1.22093.546977 1.22093 1.22093 0 .673954-.546976 1.22093-1.22093 1.22093-.673953 0-1.22093-.546976-1.22093-1.22093 0-.673953.546977-1.22093 1.22093-1.22093z" opacity=".05"/><path d="m11.75 9.75c-1.1028 0-2 .8972-2 2s.8972 2 2 2 2-.8972 2-2-.8972-2-2-2z" fill="none" stroke="url(#e)" stroke-width=".878792"/></g></svg>

<?xml version="1.0" encoding="UTF-8" standalone="no"?>
<svg
   xmlns:dc="http://purl.org/dc/elements/1.1/"
   xmlns:cc="http://creativecommons.org/ns#"
   xmlns:rdf="http://www.w3.org/1999/02/22-rdf-syntax-ns#"
   xmlns:svg="http://www.w3.org/2000/svg"
   xmlns="http://www.w3.org/2000/svg"
   xmlns:xlink="http://www.w3.org/1999/xlink"
   xmlns:sodipodi="http://sodipodi.sourceforge.net/DTD/sodipodi-0.dtd"
   xmlns:inkscape="http://www.inkscape.org/namespaces/inkscape"
   version="1.1"
   width="16"
   height="16"
   id="svg5280"
   sodipodi:docname="sc_presentationdialog.svg"
   inkscape:version="0.92.3 (unknown)"
   inkscape:export-filename="/home/rizmut/Dokumen/Rizmut/Github/libreoffice-style-elementary/images_elementary/cmd/sc_presentationdialog.png"
   inkscape:export-xdpi="96"
   inkscape:export-ydpi="96">
  <sodipodi:namedview
     pagecolor="#ffffff"
     bordercolor="#666666"
     borderopacity="1"
     objecttolerance="10"
     gridtolerance="10"
     guidetolerance="10"
     inkscape:pageopacity="0"
     inkscape:pageshadow="2"
     inkscape:window-width="1366"
     inkscape:window-height="706"
     id="namedview20"
     showgrid="true"
     inkscape:zoom="20.85965"
     inkscape:cx="14.594694"
     inkscape:cy="6.4929501"
     inkscape:window-x="0"
     inkscape:window-y="0"
     inkscape:window-maximized="1"
     inkscape:current-layer="svg5280"
     inkscape:snap-global="false">
    <inkscape:grid
       type="xygrid"
       id="grid865" />
  </sodipodi:namedview>
  <defs
     id="defs5282">
    <linearGradient
       id="linearGradient4275">
      <stop
         id="stop4277"
         style="stop-color:#ffffff;stop-opacity:1"
         offset="0" />
      <stop
         id="stop4279"
         style="stop-color:#ffffff;stop-opacity:0.23529412"
         offset="0.00164232" />
      <stop
         id="stop4281"
         style="stop-color:#ffffff;stop-opacity:0.15686275"
         offset="0.39239356" />
      <stop
         id="stop4283"
         style="stop-color:#ffffff;stop-opacity:0.39215687"
         offset="1" />
    </linearGradient>
    <linearGradient
       gradientTransform="matrix(0.36729854,0,0,0.36733216,-0.29188311,-1.3194692)"
       gradientUnits="userSpaceOnUse"
       xlink:href="#linearGradient4275"
       id="linearGradient3038"
       y2="35.86034"
       x2="17.064001"
       y1="22.098661"
       x1="24.377628" />
    <radialGradient
       gradientTransform="matrix(0,0.61540613,-0.66948701,0,41.291629,-38.279644)"
       gradientUnits="userSpaceOnUse"
       xlink:href="#linearGradient3242-7-3-8-0-4-58-06"
       id="radialGradient3900-3"
       fy="48.189987"
       fx="65.079536"
       r="31.000002"
       cy="48.189987"
       cx="65.079536" />
    <linearGradient
       id="linearGradient3242-7-3-8-0-4-58-06">
      <stop
         id="stop3244-5-8-5-6-4-3-8"
         style="stop-color:#cdf87e;stop-opacity:1"
         offset="0" />
      <stop
         id="stop3246-9-5-1-5-3-0-7"
         style="stop-color:#a2e34f;stop-opacity:1"
         offset="0.26238" />
      <stop
         id="stop3248-7-2-0-7-5-35-9"
         style="stop-color:#68b723;stop-opacity:1"
         offset="0.66093999" />
      <stop
         id="stop3250-8-2-8-5-6-40-4"
         style="stop-color:#1d7e0d;stop-opacity:1"
         offset="1" />
    </linearGradient>
    <linearGradient
       inkscape:collect="always"
       xlink:href="#linearGradient3309"
       id="linearGradient3893"
       gradientUnits="userSpaceOnUse"
       gradientTransform="matrix(0.5,0,0,0.5,-0.7790945,7.75)"
       x1="25"
       y1="-11.932203"
       x2="25"
       y2="8.4520321" />
    <linearGradient
       x1="63.9995"
       y1="3.1001"
       x2="63.9995"
       y2="122.8994"
       id="linearGradient3309"
       gradientUnits="userSpaceOnUse">
      <stop
         id="stop3311"
         style="stop-color:#f6f6f6;stop-opacity:1"
         offset="0" />
      <stop
         id="stop3313"
         style="stop-color:#e6e6e6;stop-opacity:1;"
         offset="1" />
    </linearGradient>
    <linearGradient
       inkscape:collect="always"
       xlink:href="#linearGradient3397"
       id="linearGradient3895"
       gradientUnits="userSpaceOnUse"
       gradientTransform="matrix(0.5,0,0,0.5,-0.7790945,7.75)"
       x1="21"
       y1="-10.033898"
       x2="21"
       y2="16.004715" />
    <linearGradient
       id="linearGradient3397">
      <stop
         id="stop3399"
         style="stop-color:#888888;stop-opacity:1;"
         offset="0" />
      <stop
         id="stop3401"
         style="stop-color:#626262;stop-opacity:1;"
         offset="1" />
    </linearGradient>
    <linearGradient
       inkscape:collect="always"
       xlink:href="#linearGradient5128"
       id="linearGradient3897"
       gradientUnits="userSpaceOnUse"
       gradientTransform="matrix(0.04807115,0,0,0.04807115,8.6734468,8.7215181)"
       x1="86.132919"
       y1="105.105"
       x2="84.63858"
       y2="20.895" />
    <linearGradient
       id="linearGradient5128">
      <stop
         id="stop5130"
         style="stop-color:#efefef;stop-opacity:1;"
         offset="0" />
      <stop
         id="stop5132"
         style="stop-color:#c9c9c9;stop-opacity:1;"
         offset="1" />
    </linearGradient>
  </defs>
  <metadata
     id="metadata5285">
    <rdf:RDF>
      <cc:Work
         rdf:about="">
        <dc:format>image/svg+xml</dc:format>
        <dc:type
           rdf:resource="http://purl.org/dc/dcmitype/StillImage" />
        <dc:title></dc:title>
      </cc:Work>
    </rdf:RDF>
  </metadata>
  <g
     id="g870"
     transform="translate(-1)">
    <path
       inkscape:connector-curvature="0"
       style="color:#000000;clip-rule:nonzero;display:inline;overflow:visible;visibility:visible;opacity:1;isolation:auto;mix-blend-mode:normal;color-interpolation:sRGB;color-interpolation-filters:linearRGB;solid-color:#000000;solid-opacity:1;fill:url(#radialGradient3900-3);fill-opacity:1;fill-rule:nonzero;stroke:none;stroke-width:0.79105061;stroke-linecap:butt;stroke-linejoin:miter;stroke-miterlimit:4;stroke-dasharray:none;stroke-dashoffset:0;stroke-opacity:1;marker:none;color-rendering:auto;image-rendering:auto;shape-rendering:auto;text-rendering:auto;enable-background:accumulate"
       id="path3375-1-3"
       d="M 3.5056104,14.541034 V 2.4998025 L 14.744092,8.520418 Z" />
    <path
       inkscape:connector-curvature="0"
       style="color:#000000;clip-rule:nonzero;display:inline;overflow:visible;visibility:visible;opacity:0.5;isolation:auto;mix-blend-mode:normal;color-interpolation:sRGB;color-interpolation-filters:linearRGB;solid-color:#000000;solid-opacity:1;fill:none;fill-opacity:1;fill-rule:nonzero;stroke:#0f5a00;stroke-width:1;stroke-linecap:round;stroke-linejoin:round;stroke-miterlimit:4;stroke-dasharray:none;stroke-dashoffset:0;stroke-opacity:1;marker:none;color-rendering:auto;image-rendering:auto;shape-rendering:auto;text-rendering:auto;enable-background:accumulate"
       id="path3375-1"
       d="M 3.5056104,14.541034 V 2.4998027 L 14.744092,8.5204182 Z" />
    <path
       inkscape:connector-curvature="0"
       style="color:#000000;clip-rule:nonzero;display:inline;overflow:visible;visibility:visible;opacity:0.6;isolation:auto;mix-blend-mode:normal;color-interpolation:sRGB;color-interpolation-filters:linearRGB;solid-color:#000000;solid-opacity:1;fill:none;fill-opacity:1;fill-rule:nonzero;stroke:url(#linearGradient3038);stroke-width:0.91491234;stroke-linecap:butt;stroke-linejoin:miter;stroke-miterlimit:4;stroke-dasharray:none;stroke-dashoffset:0;stroke-opacity:1;marker:none;color-rendering:auto;image-rendering:auto;shape-rendering:auto;text-rendering:auto;enable-background:accumulate"
       id="path4220-4"
       d="M 4.776846,4.3120817 V 12.716447 L 12.628445,8.5213124 Z" />
  </g>
  <g
     id="g3888"
     transform="matrix(1.0513065,-0.43546544,0.43546544,1.0513065,-5.966936,4.2665013)">
    <path
       style="display:block;overflow:visible;visibility:visible;fill:url(#linearGradient3893);fill-opacity:1;fill-rule:nonzero;stroke:url(#linearGradient3895);stroke-width:0.52727503;stroke-linecap:butt;stroke-linejoin:round;stroke-miterlimit:4;stroke-dasharray:none;stroke-dashoffset:0;stroke-opacity:1;marker:none;enable-background:accumulate"
       id="path2426"
       d="M 11.21875,8 C 11.094542,8 11,8.0945411 11,8.21875 v 0.625 c -0.276951,0.0711 -0.525582,0.1859391 -0.765625,0.328125 L 9.78125,8.71875 c -0.087828,-0.087829 -0.224671,-0.087829 -0.3125,0 l -0.75,0.75 c -0.087829,0.087829 -0.087829,0.2246711 0,0.3125 l 0.453125,0.453125 C 9.0296894,10.474418 8.9148505,10.723048 8.84375,11 h -0.625 C 8.0945415,11 8,11.094541 8,11.21875 v 1.0625 C 8,12.405459 8.0945415,12.5 8.21875,12.5 h 0.625 c 0.071101,0.276951 0.1859395,0.525582 0.328125,0.765625 L 8.71875,13.71875 c -0.087829,0.08783 -0.087829,0.224671 0,0.3125 l 0.75,0.75 c 0.087829,0.08783 0.224671,0.08783 0.3125,0 l 0.453125,-0.453125 C 10.474418,14.470311 10.723049,14.58515 11,14.65625 v 0.625 C 11,15.405459 11.094542,15.5 11.21875,15.5 h 1.0625 C 12.405459,15.5 12.5,15.405459 12.5,15.28125 v -0.625 c 0.276951,-0.0711 0.525582,-0.185939 0.765625,-0.328125 l 0.453125,0.453125 c 0.08783,0.08783 0.224671,0.08783 0.3125,0 l 0.75,-0.75 c 0.08783,-0.08783 0.08783,-0.224671 0,-0.3125 L 14.328125,13.265625 C 14.470311,13.025582 14.58515,12.776951 14.65625,12.5 h 0.625 C 15.405459,12.5 15.5,12.405459 15.5,12.28125 v -1.0625 C 15.5,11.094541 15.405459,11 15.28125,11 h -0.625 c -0.0711,-0.276952 -0.185939,-0.525582 -0.328125,-0.765625 L 14.78125,9.78125 c 0.08783,-0.087829 0.08783,-0.224671 0,-0.3125 l -0.75,-0.75 c -0.08783,-0.087829 -0.224671,-0.087829 -0.3125,0 L 13.265625,9.171875 C 13.025582,9.0296891 12.776951,8.9148503 12.5,8.84375 v -0.625 C 12.5,8.0945411 12.405459,8 12.28125,8 Z M 11.75,10.75 c 0.552,0 1,0.448 1,1 0,0.552 -0.448,1 -1,1 -0.552,0 -1,-0.448 -1,-1 0,-0.552 0.448,-1 1,-1 z"
       inkscape:connector-curvature="0" />
    <path
       style="opacity:0.05;fill:#000000;fill-opacity:1;stroke:none"
       id="path3315"
       d="m 11.75,9.482558 c -1.250289,0 -2.2674419,1.017154 -2.2674419,2.267442 0,1.250289 1.0171529,2.267442 2.2674419,2.267442 1.250288,0 2.267442,-1.017153 2.267442,-2.267442 0,-1.250288 -1.017154,-2.267442 -2.267442,-2.267442 z m 0,1.046512 c 0.673954,0 1.22093,0.546977 1.22093,1.22093 0,0.673954 -0.546976,1.22093 -1.22093,1.22093 -0.673953,0 -1.22093,-0.546976 -1.22093,-1.22093 0,-0.673953 0.546977,-1.22093 1.22093,-1.22093 z"
       inkscape:connector-curvature="0" />
    <path
       style="fill:none;stroke:url(#linearGradient3897);stroke-width:0.87879175;stroke-miterlimit:4;stroke-dasharray:none"
       id="path28"
       d="m 11.75,9.75 c -1.1028,0 -2,0.8972 -2,2 0,1.1028 0.8972,2 2,2 1.1028,0 2,-0.8972 2,-2 0,-1.1028 -0.8972,-2 -2,-2 z"
       inkscape:connector-curvature="0" />
  </g>
</svg>
